X:1
T:Cello Suite 6
T:Cello Suite 6
T:Prelude
T:Bach
C:Bach
%%score { ( 1 4 ) | ( 2 3 5 ) }
L:1/8
M:12/8
K:D
V:1 treble nm="Piano" snm="Pno."
V:4 treble 
V:2 bass 
V:3 bass 
V:5 bass 
V:1
 x12 | x12 | x12 | x12 | x12 | x12 | x12 | x12 | x12 | AA,B, CEB, CAE CEC | A,AB, CEB, CAE CEC | %11
 A,xA, A,xC A,xE A,xA | A,xA, A,xC A,xE A,xA | FA,D F^GA EA,C E^GA | FA,D F^GA EA,C E^GA | x12 | %16
 x12 | x12 | x12 | GB,^D EGA BEG Bc^d | eEF GBF GeB GBG | EeF GBF GeB GBG | EE^D ExF GxF Ex^D | %23
 Ex^D ExF GxF Ex^D | ExG ^DxF ExG ^DxF | ExG FxA GxE FxA | GxF GxA BxA GxF | GxF GxA BxA GxF | %28
 GxB FxA GxB FxA | GxE Fx^D ExG Fx^D | ExG =DxF CxE B,xD | ^A,xC A,xC F,GF EDC | %32
 DB,F DB,F DB,C DEF | G,B,D FB^A BGE dcB | ^AEc AEc ^AEF GFE | DBF DBF DB=A ^GAB | x12 | x12 | %38
 x12 | x12 | x12 | x12 | x12 | x12 | x12 | x12 | x12 | x12 | x12 | x12 | x12 | %51
 B,G,A, B,DA, B,GD B,DA, | B,G,A, B,DA, B,GD B,G,D, | x12 | x12 | x12 | x12 | x12 | x12 | x12 | %60
 x12 | x12 | x12 | x12 | x12 | x12 | x12 | CA,B, CEF =GED CEB, | CA,B, CEF GAB cde | %69
 A,Fd FDE FdE FdD | A,Ge GEF GeF GeE | A,Af AFG AfG AfF | A,Bg BGA BgA BgG | A,cg fed cfe dcB | %74
 Afe fGF Ged eFE | Fdc dED EcB cAF | DBA BGE CAG AFD | B,GF GEC A,-(3A,/B,/C/(3D/E/F/ GEC | %78
 A,FE FDB, G,-(3:2:2G,A,/(3B,/C/D/ ECA, | x12 | x12 | x12 | G,A,C EGA c3- c/B/A/G/F/E/ | %83
 A/G/F/E/D/C/ F/E/D/C/B,/A,/ x2 x4 | x3/2 C/E/A/ E/C/A,/ x3 C/E/A/ E/C/A,/ x/ x | %85
 x x/ C/E/A/ E/C/A,/ x x2 C/E/A/ E/C/A,/ x/ x/ x/ | x12 | x12 | x12 | x12 | x12 | x12 | x12 | %93
 ^G,/A,/B,/C/D/E/ D/E/C/E/D/E/ D/E/C/E/D/E/ D/E/C/E/B,/E/ | %94
 =G,/A,/C/D/E/D/ C/E/B,/E/C/E/ C/E/B,/E/C/E/ C/E/B,/E/A,/E/ | x12 | x x x B^GA AF=G GE=F | %97
 =FD_E E^CD x2 x4 | x12 | x12 | x4 x2 GDG BGE | CED EGF GBA Bdc | dAF AFD FDA, DA,F, | x12 |] %104
V:2
 D,D,D, D,D,F, D,D,A, D,D,D | D,D,D, D,D,F, D,D,A, D,D,D | B,D,G, B,CD A,D,F, A,CD | %3
 B,D,G, B,CD A,D,F, A,CD | G,E,F, G,D,F, G,C,F, G,A,,G, | F,D,E, F,C,E, F,B,,D, F,A,,D, | %6
 E,^G,,D, E,A,,C, D,A,,C, D,^G,,B,, | C,A,,C, E,F,^G, A,C,E, ^G,A,B, | CE,^G, A,CD EA,C EF^G | %9
 x12 | x12 | x12 | x12 | x12 | x12 | DB,C DA,C D^G,C DE,D | CA,B, C^G,B, CF,A, CE,A, | %17
 =C^D,C B,CA, FA,=C B,CA, | G,E,G, B,C^D EG,B, ^DEF | x12 | x12 | x12 | x12 | x12 | x12 | x12 | %26
 x12 | x12 | x12 | x12 | x12 | x12 | x12 | x12 | x12 | x12 | ^E=DC D^G,F, G,DC D^ED | %37
 C=ED CEB, ^A,B,C G,F,E, | D,F,B, =A,G,F, G,E,D, C,D,E, | ^A,,C,F, E,D,C, D,B,,=A,, ^G,,A,,B,, | %40
 ^E,,B,,D, E,,B,,D, B,CD C^A,B, | F,,B,,D, F,,B,,D, B,CD C^A,B, | G,,B,,E, B,CD C^A,B, ^E^A,B, | %43
 FCD BAG FED =CEB, | ^A,=G,F, E,D,C, D,F,B, F,B,^A, | B,F,E, D,F,C, D,B,,D, F,B,F, | %46
 D,B,F, D,F,C, D,B,,D, F,A,^G, | A,E,D, C,E,B,, C,A,,C, E,A,E, | C,=G,E, C,E,B,, C,A,,C, E,F,G, | %49
 F,A,G, F,A,E, F,D,E, F,A,B, | =CA,G, F,A,E, F,D,F, A,B,=C | x12 | x12 | %53
 G,,xG,, G,,xB,, G,,xD, G,,xG, | G,,xG,, G,,xB,, G,,xD, G,,xG, | E,G,,=C, E,F,G, D,G,,B,, D,F,G, | %56
 E,G,,=C, E,F,G, D,G,,B,, D,F,G, | =C,A,,B,, C,A,,G,, F,,A,,B,, =C,A,,F,, | %58
 D,,F,,A,, =C,D,F, A,DA, F,D,=C, | B,,G,,A,, B,,D,A,, B,,G,,A,, B,,G,A,, | %60
 B,,G,,A,, B,,D,A,, B,,G,,A,, B,,G,E, | C,A,,B,, C,E,F, G,E,D, C,E,B,, | %62
 C,A,,B,, C,E,F, G,A,B, CDE | F,D,E, F,A,E, F,D,E, F,DE, | F,D,E, F,A,E, F,D,E, F,DB, | %65
 ^G,E,F, G,B,C DB,A, ^G,B,F, | ^G,E,F, G,B,C DEF ^GAB | x12 | x12 | x12 | x12 | x12 | x12 | x12 | %74
 x12 | x12 | x12 | x12 | x12 | F,DC DB,G, E,-(3:2:2E,F,/(3G,/A,/B,/ CA,F, | %80
 D,B,G, E,C,A, B,,G,E, C,A,,F, | G,,E,C, A,,F,,D, E,,G,,A,, C,E,F, | x12 | %83
 x4 x2 D/C/B,/A,/^G,/F,/ B,/A,/G,/F,/E,/D,/ | C,/E,/A,/ x x2 E,/C,/A,,/ C,/E,/A,/ x x2 E,/C,/A,,/ | %85
 =G,,/E,/A,/ x x2 E,/C,/A,,/ G,,/E,/A,/ x x2 E,/C,/A,,/ | %86
 F,,/A,,/B,,/=C,/B,,/A,,/ D,,/A,,/B,,/C,/B,,/A,,/ F,/A,/B,/=C/B,/A,/ F/A,/B,/C/B,/A,/ | %87
 B,/D/=C/B,/A,/G,/ B,/A,/G,/F,/E,/D,/ E,/G,/F,/E,/D,/^C,/ F,/E,/D,/C,/B,,/A,,/ | %88
 =F,/E,/D,/E,/F,/D,/ ^G,,/D,/E,/=F,/E,/D,/ B,/D,/E,/=F,/E,/D,/ D/D,/E,/F,/E,/D,/ | %89
 A,xA, A,xC A,xE A,xA | A,xA, A,xC A,xE A,xA | D,D,D, D,D,F, D,D,A, D,D,D | %92
 D,D,D, D,D,F, D,D,A, D,D,D | x12 | x12 | F,EA DCB, E,DG CB,A, | D,A,F x x8 | %97
 x4 x2 !fermata!D z z !fermata!D z z | %98
 !fermata!D z z !fermata!D z z !fermata!D z z !fermata!C z z | D,F,A, DA,F, D,F,A, =CA,F, | %100
 D,G,B, DB,D x2 x4 | x12 | x12 | A,F,D, F,D,A,, D,,A,,F, !fermata!D3 |] %104
V:3
 x D, x2 D, x2 D, x2 D, x | x D, x2 D, x2 D, x2 D, x | x12 | x12 | x12 | x12 | x12 | x12 | x12 | %9
 x12 | x12 | x12 | x12 | x12 | x12 | x12 | x12 | x12 | x12 | x12 | x12 | x12 | x12 | x12 | x12 | %25
 x12 | x12 | x12 | x12 | x12 | x12 | x12 | x12 | x12 | x12 | x12 | x12 | x12 | x12 | x12 | x12 | %41
 x12 | x12 | x12 | x12 | x12 | x12 | x12 | x12 | x12 | x12 | x12 | x12 | %53
 x G,, x2 G,, x2 G,, x2 G,, x | x G,, x2 G,, x2 G,, x2 G,, x | x12 | x12 | x12 | x12 | x12 | x12 | %61
 x12 | x12 | x12 | x12 | x12 | x12 | x12 | x12 | x12 | x12 | x12 | x12 | x12 | x12 | x12 | x12 | %77
 x12 | x12 | x12 | x12 | x12 | x12 | x12 | x12 | x12 | x12 | x12 | x12 | x A, x2 A, x2 A, x2 A, x | %90
 x A, x2 A, x2 A, x2 A, x | x D, x2 D, x2 D, x2 D, x | x D, x2 D, x2 D, x2 D, x | x12 | x12 | x12 | %96
 x12 | x6 B,, x2 _B,, x2 | A,, x2 ^G,, x2 A,, x2 A,, x2 | x12 | x12 | x12 | x12 | x12 |] %104
V:4
 x12 | x12 | x12 | x12 | x12 | x12 | x12 | x12 | x12 | x12 | x12 | x A, x2 A, x2 A, x2 A, x | %12
 x A, x2 A, x2 A, x2 A, x | x12 | x12 | x12 | x12 | x12 | x12 | x12 | x12 | x12 | %22
 x E x2 E x2 E x2 E x | x E x2 E x2 E x2 E x | x E x2 E x2 E x2 E x | x E x2 E x2 E x2 E x | %26
 x E x2 E x2 E x2 E x | x E x2 E x2 E x2 E x | x E x2 E x2 E x2 E x | x E x2 E x2 E x2 E x | %30
 x E x2 E x2 E x2 E x | x E x2 E x7 | x12 | x12 | x12 | x12 | x12 | x12 | x12 | x12 | x12 | x12 | %42
 x12 | x12 | x12 | x12 | x12 | x12 | x12 | x12 | x12 | x12 | x12 | x12 | x12 | x12 | x12 | x12 | %58
 x12 | x12 | x12 | x12 | x12 | x12 | x12 | x12 | x12 | x12 | x12 | x12 | x12 | x12 | x12 | x12 | %74
 x12 | x12 | x12 | x12 | x12 | x12 | x12 | x12 | x12 | x12 | x12 | x12 | x12 | x12 | x12 | x12 | %90
 x12 | x12 | x12 | x12 | x12 | x12 | x12 | x12 | x12 | x12 | x12 | x12 | x12 | x12 |] %104
V:5
 x12 | x12 | x12 | x12 | x12 | x12 | x12 | x12 | x12 | x12 | x12 | x12 | x12 | x12 | x12 | x12 | %16
 x12 | x12 | x12 | x12 | x12 | x12 | x12 | x12 | x12 | x12 | x12 | x12 | x12 | x12 | x12 | x12 | %32
 x12 | x12 | x12 | x12 | x12 | x12 | x12 | x12 | x12 | x12 | x12 | x12 | x12 | x12 | x12 | x12 | %48
 x12 | x12 | x12 | x12 | x12 | x12 | x12 | x12 | x12 | x12 | x12 | x12 | x12 | x12 | x12 | x12 | %64
 x12 | x12 | x12 | x12 | x12 | x12 | x12 | x12 | x12 | x12 | x12 | x12 | x12 | x12 | x12 | x12 | %80
 x12 | x12 | x12 | x12 | x12 | x12 | x12 | x12 | x12 | x12 | x12 | x12 | x12 | x12 | x12 | x12 | %96
 x12 | x6 ^G, x2 =G, x2 | F, x2 =F, x2 E, x2 E, x2 | x12 | x12 | x12 | x12 | x12 |] %104

